static/logos/replit-wordmark-color.svg

<svg width="100" height="30" viewBox="0 0 100 30" fill="none" xmlns="http://www.w3.org/2000/svg">
<g clip-path="url(#clip0_1_1257)">
<path d="M24.4375 11.8098C24.4711 12.1799 24.4941 12.5533 24.4941 12.9323C24.4941 12.5531 24.4711 12.1801 24.4375 11.8098Z" fill="black"/>
<path d="M6.29857 11.7452C6.29857 11.7452 2.89913 24.2703 16.5244 24.3793C20.7993 22.788 23.9495 18.8863 24.4268 14.1824C24.4598 13.857 24.4696 13.5251 24.477 13.1926C24.4785 13.1051 24.4901 13.0203 24.4901 12.9321C24.4901 12.5535 24.4668 12.1799 24.4333 11.8098C20.8334 25.9806 4.90891 20.4301 6.29857 11.7452Z" fill="black"/>
<path d="M13.3449 7.09594C13.3449 7.09594 0.65877 3.5535 0.853788 17.3862C1.50404 19.0577 2.51319 20.5662 3.81005 21.8052C3.86467 21.8568 3.92112 21.9055 3.97611 21.9563C4.34293 22.2945 4.73005 22.61 5.13533 22.9009C5.19825 22.9459 5.25747 22.9956 5.32057 23.0395C5.74926 23.3325 6.19623 23.598 6.65876 23.8339C6.79326 23.9031 6.93127 23.9664 7.06762 24.031C7.46568 24.2184 7.87367 24.3839 8.28976 24.5269C8.39197 24.5618 8.48957 24.6055 8.59308 24.6378C9.09195 24.7904 9.60015 24.9105 10.1145 24.9976C10.27 25.0249 10.4272 25.0478 10.5848 25.0696C11.1184 25.1465 11.6564 25.1884 12.1955 25.1946C12.2161 25.1946 12.2361 25.1978 12.2567 25.1978C12.6634 25.1978 13.0649 25.176 13.4608 25.1371C-0.772964 21.7426 4.63718 5.82638 13.3446 7.09631L13.3449 7.09594Z" fill="black"/>
<path d="M18.293 13.6559C18.293 13.6559 21.2943 1.00275 7.78433 1.56788C3.25389 3.35736 0.046875 7.76529 0.046875 12.9312C0.0511185 13.4874 0.0930005 14.0428 0.172521 14.5933C3.0157 0.277846 19.214 4.914 18.293 13.6559Z" fill="black"/>
<path d="M11.8069 19.1011C11.8069 19.1011 24.515 20.7599 23.7195 8.67766C21.9899 4.02692 17.5242 0.707184 12.2715 0.707184C11.5277 0.710084 10.7857 0.780608 10.0547 0.917885C24.215 2.65626 20.5346 19.2247 11.8069 19.1011Z" fill="black"/>
<path d="M15.8013 12.9325C15.8013 13.8406 15.4405 14.7115 14.7984 15.3537C14.1562 15.9958 13.2853 16.3565 12.3772 16.3565C11.4691 16.3565 10.5981 15.9958 9.956 15.3537C9.31386 14.7115 8.95312 13.8406 8.95312 12.9325C8.95312 12.0243 9.31386 11.1534 9.956 10.5113C10.5981 9.86915 11.4691 9.50839 12.3772 9.50839C13.2853 9.50839 14.1562 9.86915 14.7984 10.5113C15.4405 11.1534 15.8013 12.0243 15.8013 12.9325ZM30.548 22.8782V6.63726H32.9841V10.6325C33.0709 10.3509 33.2332 9.98302 33.4714 9.52804C33.7312 9.05165 34.0995 8.57527 34.5758 8.09889C35.0522 7.6225 35.6476 7.22195 36.3624 6.89704C37.0985 6.55055 37.9648 6.3773 38.9609 6.3773H39.1233V8.81365H38.831C37.6183 8.81365 36.5681 9.14944 35.6803 9.82066C34.814 10.4703 34.1426 11.3256 33.6662 12.3867C33.2116 13.4262 32.9841 14.5413 32.9841 15.7323V22.8782H30.548ZM48.5441 23.138C46.8983 23.138 45.4583 22.7699 44.224 22.0338C42.9897 21.2758 42.026 20.2579 41.333 18.9805C40.6618 17.7028 40.3262 16.2952 40.3262 14.7577C40.3262 13.1987 40.6509 11.791 41.3006 10.535C41.9502 9.25737 42.8814 8.25055 44.0941 7.5142C45.3066 6.75627 46.736 6.3773 48.3817 6.3773C50.0491 6.3773 51.4782 6.75627 52.6692 7.5142C53.8819 8.25036 54.8131 9.25737 55.4627 10.535C56.1124 11.791 56.4373 13.1985 56.4373 14.7577V15.7321H42.8273C42.9572 16.685 43.2603 17.562 43.7367 18.3633C44.2349 19.1428 44.8952 19.7709 45.7181 20.2472C46.541 20.7019 47.4937 20.9293 48.5766 20.9293C49.7242 20.9293 50.6878 20.6803 51.4675 20.1823C52.2471 19.6626 52.8533 19.002 53.2864 18.2007H55.95C55.3869 19.6517 54.4882 20.8426 53.2539 21.7738C52.0413 22.6834 50.4714 23.138 48.5441 23.138ZM42.8598 13.4585H53.9035C53.6871 12.0725 53.1024 10.914 52.1496 9.98284C51.1967 9.05165 49.9408 8.58616 48.3817 8.58616C46.8225 8.58616 45.5666 9.05165 44.6137 9.98284C43.6827 10.914 43.098 12.0725 42.8598 13.4585ZM59.4138 29.3096V6.63726H61.85V9.23579C62.4563 8.34797 63.236 7.65498 64.1887 7.15701C65.1631 6.63726 66.3218 6.3773 67.6642 6.3773C69.245 6.3773 70.6201 6.75627 71.7895 7.5142C72.9804 8.25036 73.9009 9.25737 74.5506 10.535C75.2002 11.791 75.5249 13.1985 75.5249 14.7577C75.5249 16.2952 75.2002 17.7028 74.5506 18.9805C73.9009 20.2579 72.9804 21.2758 71.7895 22.0338C70.6201 22.7699 69.245 23.138 67.6642 23.138C66.3218 23.138 65.1631 22.8782 64.1887 22.3585C63.236 21.8172 62.4563 21.1133 61.85 20.2472V29.3096H59.4138ZM67.3395 20.9293C68.5522 20.9293 69.5808 20.6478 70.4253 20.0847C71.2915 19.5218 71.9518 18.7747 72.4066 17.8435C72.8614 16.8908 73.0887 15.8622 73.0887 14.7577C73.0887 13.6317 72.8614 12.6031 72.4066 11.672C71.9518 10.7408 71.2915 9.99372 70.4253 9.43062C69.5808 8.86771 68.5522 8.58616 67.3395 8.58616C66.1485 8.58616 65.1306 8.86771 64.2862 9.43062C63.4417 9.99372 62.8028 10.7408 62.3697 11.672C61.9367 12.6031 61.7201 13.6317 61.7201 14.7577C61.7201 15.8622 61.9367 16.8908 62.3697 17.8435C62.8028 18.7747 63.4417 19.5218 64.2862 20.0847C65.1306 20.6478 66.1485 20.9293 67.3395 20.9293ZM78.7317 22.8782V0.140778H81.1679V22.8782H78.7317ZM85.2958 3.90867V0.725464H87.9268V3.90867H85.2958ZM85.3932 22.8782V6.63726H87.8293V22.8782H85.3932ZM93.8085 22.8782V8.78099H90.4954V6.63708H93.8085V0.822881H96.2447V6.63726H99.9801V8.78118H96.2447V22.8782H93.8085Z" fill="black"/>
</g>
<defs>
<clipPath id="clip0_1_1257">
<rect width="100" height="29.3358" fill="white"/>
</clipPath>
</defs>
</svg>

<svg xmlns="http://www.w3.org/2000/svg" width="213.333" height="64" fill="none" viewBox="0 0 100 30"><g fill="#000" clip-path="url(#a)"><path d="M24.438 11.81ZM6.299 11.745S2.899 24.27 16.524 24.38c4.275-1.591 7.425-5.493 7.903-10.197.033-.325.043-.657.05-.99.002-.087.013-.172.013-.26 0-.379-.023-.752-.057-1.122-3.6 14.17-19.524 8.62-18.134-.065Z"/><path d="M13.345 7.096S.659 3.554.854 17.386c.65 1.672 1.66 3.18 2.956 4.42l.166.15c.367.338.754.654 1.16.945.062.045.121.095.185.139.428.293.875.558 1.338.794.134.07.272.132.409.197.398.187.806.353 1.222.496.102.035.2.078.303.11a12.118 12.118 0 0 0 1.992.433c.533.076 1.071.118 1.61.125.021 0 .041.003.062.003.406 0 .808-.022 1.204-.06-14.234-3.395-8.824-19.312-.116-18.042Z"/><path d="M18.293 13.656S21.294 1.003 7.784 1.568C3.254 3.358.047 7.765.047 12.93c.004.556.046 1.112.126 1.662 2.843-14.315 19.041-9.679 18.12-.937Z"/><path d="M11.807 19.101S24.515 20.76 23.719 8.678C21.99 4.027 17.524.708 12.271.708a12.27 12.27 0 0 0-2.216.21c14.16 1.738 10.48 18.307 1.752 18.183Z"/><path d="M15.801 12.932a3.424 3.424 0 1 1-6.849 0 3.424 3.424 0 0 1 6.85 0Zm14.747 9.946V6.638h2.436v3.995c.087-.282.25-.65.487-1.105.26-.476.629-.953 1.105-1.43.476-.476 1.072-.876 1.786-1.201.736-.346 1.603-.52 2.599-.52h.162v2.437h-.292c-1.213 0-2.263.335-3.15 1.007-.867.65-1.538 1.505-2.015 2.566a8.257 8.257 0 0 0-.682 3.345v7.146h-2.436Zm17.996.26c-1.646 0-3.086-.368-4.32-1.104a7.997 7.997 0 0 1-2.891-3.053c-.671-1.278-1.007-2.686-1.007-4.223 0-1.56.325-2.967.975-4.223a7.372 7.372 0 0 1 2.793-3.02c1.213-.759 2.642-1.138 4.288-1.138 1.667 0 3.096.38 4.287 1.137a7.371 7.371 0 0 1 2.794 3.021c.65 1.256.974 2.663.974 4.223v.974h-13.61c.13.953.433 1.83.91 2.631a5.701 5.701 0 0 0 1.981 1.884c.823.455 1.776.682 2.859.682 1.147 0 2.11-.249 2.89-.747a5.494 5.494 0 0 0 1.82-1.981h2.663a8.027 8.027 0 0 1-2.696 3.573c-1.213.91-2.783 1.364-4.71 1.364Zm-5.684-9.68h11.044c-.217-1.386-.802-2.544-1.754-3.475-.953-.931-2.21-1.397-3.768-1.397-1.56 0-2.815.466-3.768 1.397-.931.931-1.516 2.09-1.754 3.476ZM59.414 29.31V6.637h2.436v2.599a6.356 6.356 0 0 1 2.339-2.079c.974-.52 2.133-.78 3.475-.78 1.581 0 2.956.38 4.126 1.137a7.443 7.443 0 0 1 2.76 3.021c.65 1.256.975 2.663.975 4.223 0 1.537-.325 2.945-.974 4.223a7.674 7.674 0 0 1-2.761 3.053c-1.17.736-2.545 1.104-4.126 1.104-1.342 0-2.5-.26-3.475-.78a7.08 7.08 0 0 1-2.339-2.11v9.062h-2.436Zm7.925-8.38c1.213 0 2.242-.282 3.086-.845a5.506 5.506 0 0 0 1.982-2.242 7.07 7.07 0 0 0 .682-3.085c0-1.126-.228-2.155-.682-3.086a5.507 5.507 0 0 0-1.982-2.241c-.844-.563-1.873-.845-3.085-.845-1.192 0-2.21.282-3.054.845a5.356 5.356 0 0 0-1.916 2.241c-.433.931-.65 1.96-.65 3.086a7.37 7.37 0 0 0 .65 3.085 5.354 5.354 0 0 0 1.916 2.242c.845.563 1.862.844 3.053.844Zm11.393 1.948V.141h2.436v22.737h-2.436Zm6.564-18.97V.726h2.63V3.91h-2.63Zm.097 18.97V6.638h2.436v16.24h-2.436Zm8.415 0V8.781h-3.313V6.637h3.313V.823h2.437v5.814h3.735v2.144h-3.735v14.097h-2.437Z"/></g><defs><clipPath id="a"><path fill="#fff" d="M0 0h100v29.336H0z"/></clipPath></defs></svg>
